X: 120875
T: Little Thatched Cabin
C: Finbar Dwyer
S: "First Collection of Traditional Irish Music" (M.Mulvihill)
Z: B.Black
L: 1/8
M: 4/4
R: reel
K: D
A,DDE FGAB|=cdDE FGAc|(3ded cd BdAg|FADB, =C2 B,C|
A,DDE FGAB|=cdDE FGAc|(3ded cd BdAg|1 FGEF D3 B :|2\
FGEF DEFA ||
d2 fd Adfd|gefd edBc|d2 fd Adfd|=cAGE =CE (3EDE|
d2 fd Adfd|gefd edBc|d2 fd Adfd|=cAGE DEFA||
d2 fd Adfd|cdef g2 ag|fdec dBAG|FGEF D2 FA|
d2 fd Adfd|cdef g2 ag|fdec dBAG|FGEF D4||
